static/img/common/ico-password.svg

<svg width="12" height="9" viewBox="0 0 12 9" fill="none" xmlns="http://www.w3.org/2000/svg">
<g clip-path="url(#clip0_840_2)">
<path d="M5.73 7.88997C2.67 7.88997 0.270002 4.91997 0.170002 4.78997C0.0300024 4.60997 0.0300024 4.36997 0.170002 4.18997C0.270002 4.05997 2.67 1.08997 5.74 1.08997C8.81 1.08997 11.2 4.05997 11.31 4.18997C11.45 4.36997 11.45 4.60997 11.31 4.78997C11.21 4.91997 8.81 7.88997 5.74 7.88997H5.73ZM1.21 4.48997C1.87 5.19997 3.67 6.91997 5.73 6.91997C7.79 6.91997 9.59 5.19997 10.25 4.48997C9.59 3.77997 7.79 2.05997 5.73 2.05997C3.67 2.05997 1.87 3.77997 1.21 4.48997Z" fill="currentColor" stroke="white" stroke-width="0.25" stroke-miterlimit="10"/>
<path d="M5.71 6.51996C6.83114 6.51996 7.74 5.6111 7.74 4.48996C7.74 3.36882 6.83114 2.45996 5.71 2.45996C4.58886 2.45996 3.68 3.36882 3.68 4.48996C3.68 5.6111 4.58886 6.51996 5.71 6.51996Z" fill="currentColor" stroke="white" stroke-width="0.25" stroke-miterlimit="10"/>
<path d="M2.01725 0.0932991L1.31721 0.793335L9.3853 8.86142L10.0853 8.16139L2.01725 0.0932991Z" fill="currentColor" stroke="white" stroke-width="0.25" stroke-miterlimit="10"/>
</g>
<defs>
<clipPath id="clip0_840_2">
<rect width="11.46" height="8.95" fill="currentColor"/>
</clipPath>
</defs>
</svg>

<svg xmlns="http://www.w3.org/2000/svg" width="12" height="9" fill="none" viewBox="0 0 12 9"><g fill="currentColor" stroke="#fff" stroke-miterlimit="10" stroke-width=".25" clip-path="url(#a)"><path d="M5.73 7.89C2.67 7.89.27 4.92.17 4.79a.48.48 0 0 1 0-.6c.1-.13 2.5-3.1 5.57-3.1s5.46 2.97 5.57 3.1c.14.18.14.42 0 .6-.1.13-2.5 3.1-5.57 3.1zm-4.52-3.4c.66.71 2.46 2.43 4.52 2.43s3.86-1.72 4.52-2.43c-.66-.71-2.46-2.43-4.52-2.43S1.87 3.78 1.21 4.49Z"/><path d="M5.71 6.52a2.03 2.03 0 1 0 0-4.06 2.03 2.03 0 0 0 0 4.06Z"/><path d="m2.017.093-.7.7 8.068 8.068.7-.7z"/></g><defs><clipPath id="a"><path fill="currentColor" d="M0 0h11.46v8.95H0z"/></clipPath></defs></svg>
